Sources/FrostedUI/Resources/Icons.xcassets/videoFilled12.imageset/video-filled-12.svg

<svg width="12" height="12" viewBox="0 0 12 12" fill="none" xmlns="http://www.w3.org/2000/svg" data-fui-icon="true">
  <path
    d="M0 5.18457C0.0849082 5.22772 0.179485 5.25488 0.28125 5.25488H12V9.09961C12 10.149 11.149 11 10.0996 11H1.90039C0.85105 11 0 10.149 0 9.09961V5.18457ZM4.93848 6.4209C4.80515 6.34482 4.63867 6.44122 4.63867 6.59473V9.71094C4.63888 9.8639 4.80426 9.96004 4.9375 9.88477L7.68164 8.33398C7.81657 8.25756 7.8173 8.06327 7.68262 7.98633L4.93848 6.4209ZM1.66504 4.00488H0.28125C0.179683 4.00488 0.0847861 4.03123 0 4.07422V2.90039C0 1.85105 0.85105 1 1.90039 1H4.6709L1.66504 4.00488ZM6.09473 4.00488H3.43359L6.22266 1.21582C6.28598 1.1525 6.33282 1.07844 6.36328 1H9.10059L6.09473 4.00488ZM10.7471 1.11523C11.4775 1.3801 12 2.07853 12 2.90039V4.00488H7.86426L10.7236 1.14551C10.7327 1.13646 10.7387 1.12468 10.7471 1.11523Z"
    fill="currentColor"
  />
</svg>

<svg xmlns="http://www.w3.org/2000/svg" width="12" height="12" fill="none" data-fui-icon="true" viewBox="0 0 12 12"><path fill="currentColor" d="M0 5.185c.085.043.18.07.281.07H12V9.1a1.9 1.9 0 0 1-1.9 1.9H1.9A1.9 1.9 0 0 1 0 9.1zM4.938 6.42a.2.2 0 0 0-.3.174V9.71a.2.2 0 0 0 .3.174l2.744-1.551a.2.2 0 0 0 0-.348zM1.665 4.005H.281a.6.6 0 0 0-.281.07V2.9A1.9 1.9 0 0 1 1.9 1h2.77zm4.43 0H3.434l2.789-2.79A.6.6 0 0 0 6.363 1h2.738zm4.652-2.89A1.9 1.9 0 0 1 12 2.9v1.105H7.864l2.86-2.86q.012-.014.023-.03"/></svg>
